X: 16934
T: Hawk Of Ballyshannon, The
R: reel
M: 4/4
K: Gmajor
G3/2F/|EF GA Be ed|e/f/g dB/A/ Be d/B/A/B/|GE E/F/G/E/ d3G/F/|
EF GA B2 AG|F/G/A/B/ AA A2 G/A/B/c/|dd/e/ dB/d/ ef g3/2f/|
e/d/B/e/ d/B/A/B/ A/G/F/E/ D3/2B/|1 A/G/F/E/ Be/d/ e2 GF/:|2 A/G/F/E/ Be/d/ e2 GA/|:BA GE GE DB|
dB/d/ dB d2 B2|G(3B/A/G/ dB/d/ ef g3/2f/|ed B/A/G A2 AG/A/|A/B/d A/B/d GB GB|
B/c/d B/c/d ef g2|e/d/B/e/ d/B/A/B/ A/G/F/E/ DB/B/|1 A/G/F/E/ Be/d/ e2 GA:|2 A/G/F/E/ Be/d/ e4||

